X: 22
M:4/4
L:1/8
K:D
2DFEG FABd|cAGE FD D2||:Addc d2 ed|cAGF EFGE|1Addc d2 cd|
eaag ed d2:|2DFEG FABd|cAGE FD D2||

